src/images/hero-img/insurance.svg

<svg width="35" height="41" viewBox="0 0 35 41" fill="none" xmlns="http://www.w3.org/2000/svg">
<g clip-path="url(#clip0)">
<path d="M0.67721 17.6776C0.67721 18.1237 0 18.1237 0 17.6776C0 8.19262 7.69262 0.5 17.1776 0.5C26.6667 0.5 34.3552 8.19262 34.3552 17.6776C34.3552 18.1237 33.6821 18.1237 33.6821 17.6776C33.6821 11.2664 23.1468 11.2624 23.1468 17.6776C23.1468 18.1237 22.4534 18.1237 22.4534 17.6776C22.4534 11.2826 11.9019 11.2826 11.9019 17.6776C11.9019 18.1237 11.2084 18.1237 11.2084 17.6776C11.2084 11.2948 0.67721 11.2502 0.67721 17.6776ZM11.2693 15.1878C11.4517 11.4976 12.0316 8.18856 12.8751 5.66221C13.5483 3.65491 14.3998 2.13017 15.365 1.27453C8.12247 2.06529 2.25872 7.55596 0.948905 14.6768C3.44282 11.0799 9.20113 11.3678 11.2693 15.1878ZM22.4006 15.0215C22.2141 11.4732 21.6504 8.29805 20.8394 5.87713C18.747 -0.388078 15.6083 -0.388078 13.5158 5.87713C12.7048 8.29805 12.1452 11.4732 11.9546 15.0215C14.2052 11.1975 20.15 11.1975 22.4006 15.0215ZM33.4063 14.6768C32.1006 7.55596 26.2368 2.06529 18.9903 1.27453C19.9594 2.13017 20.807 3.65491 21.4801 5.66221C22.3236 8.18856 22.9035 11.4976 23.086 15.1878C25.1663 11.3475 30.9408 11.1204 33.4063 14.6768Z" fill="#FF6B09"/>
<path d="M14.9229 25.5374V22.0493C14.2943 22.467 13.7996 23.1119 13.7996 23.8988C13.7996 24.6654 14.3025 25.1724 14.9229 25.5374ZM15.6001 26.6204C14.3957 26.0688 13.1265 25.4239 13.1265 23.8988C13.1265 22.3251 14.3227 21.5382 15.6001 20.9501V26.6204Z" fill="#FF6B09"/>
<path d="M19.4324 30.8V34.328C20.0691 33.9063 20.5679 33.2575 20.5679 32.4708C20.5679 31.6962 20.0569 31.1731 19.4324 30.8ZM18.7593 29.7133C19.9677 30.2729 21.2451 30.9379 21.2451 32.4708C21.2451 34.0482 20.0407 34.8349 18.7593 35.4189V29.7133Z" fill="#FF6B09"/>
<path d="M19.4323 18.0791C22.206 18.7198 25.0568 20.7961 25.0568 23.8984C25.0568 26.5546 20.5677 26.4572 20.5677 23.8984C20.5677 23.1076 20.069 22.4588 19.4323 22.0411V27.0047C21.9992 27.8441 25.0649 29.3486 25.0649 32.4712C25.0649 35.5775 22.2141 37.6497 19.4323 38.2864C19.4201 41.2427 14.9311 41.2386 14.923 38.2824C13.3415 37.9174 11.9668 37.1793 10.9733 36.202C9.93109 35.172 9.31471 33.8784 9.31471 32.4712C9.31471 29.8555 13.7997 29.8555 13.7997 32.4712C13.7997 33.2538 14.2944 33.8986 14.923 34.3163V29.3568C12.3763 28.5335 9.29443 26.9844 9.29443 23.8903C9.29443 20.784 12.1452 18.7117 14.923 18.075C14.9351 15.1188 19.4242 15.1228 19.4323 18.0791ZM15.6002 18.0872V18.6266C12.9603 19.1497 9.96759 20.8407 9.96759 23.8903C9.96759 26.8222 13.2523 28.1361 15.6002 28.862V35.4153C14.3309 34.8354 13.1265 34.0527 13.1265 32.4712C13.1265 30.7436 9.98786 30.7436 9.98786 32.4712C9.98786 33.6918 10.5313 34.8192 11.4477 35.7194C12.6115 36.8711 14.0227 37.4186 15.6002 37.7308V38.2742C15.6002 40.3546 18.7592 40.3546 18.7592 38.2742V37.7349C21.4072 37.2077 24.3877 35.5167 24.3877 32.4712C24.3877 29.5109 21.1111 28.2375 18.7592 27.4954V21.4693V20.9462C20.0325 21.5261 21.245 22.3087 21.245 23.8984C21.245 25.5813 24.3796 25.6503 24.3796 23.8984C24.3796 20.8529 21.4031 19.1578 18.7592 18.6306V18.0872C18.7592 16.0069 15.6002 16.0069 15.6002 18.0872Z" fill="#FF6B09"/>
</g>
<defs>
<clipPath id="clip0">
<rect width="35" height="40" fill="white" transform="translate(0 0.5)"/>
</clipPath>
</defs>
</svg>

<svg width="35" height="41" fill="none" xmlns="http://www.w3.org/2000/svg"><g clip-path="url(#clip0)" fill="#FF6B09"><path d="M.677 17.678c0 .446-.677.446-.677 0C0 8.193 7.693.5 17.178.5c9.489 0 17.177 7.693 17.177 17.178 0 .446-.673.446-.673 0 0-6.412-10.535-6.416-10.535 0 0 .446-.694.446-.694 0 0-6.395-10.551-6.395-10.551 0 0 .446-.694.446-.694 0 0-6.383-10.53-6.428-10.53 0zm10.592-2.49c.183-3.69.763-7 1.606-9.526.673-2.007 1.525-3.532 2.49-4.387C8.122 2.065 2.259 7.556.949 14.677c2.494-3.597 8.252-3.31 10.32.51zm11.132-.167c-.187-3.548-.75-6.723-1.562-9.144-2.092-6.265-5.23-6.265-7.323 0-.811 2.421-1.37 5.596-1.561 9.144 2.25-3.824 8.195-3.824 10.446 0zm11.005-.344C32.101 7.556 26.236 2.065 18.99 1.275c.97.855 1.817 2.38 2.49 4.387.844 2.527 1.424 5.836 1.606 9.526 2.08-3.84 7.855-4.068 10.32-.511zm-18.483 10.86V22.05c-.629.418-1.123 1.063-1.123 1.85 0 .766.502 1.273 1.123 1.638zm.677 1.083c-1.204-.551-2.473-1.196-2.473-2.721 0-1.574 1.196-2.36 2.473-2.949v5.67zm3.832 4.18v3.528c.637-.422 1.136-1.07 1.136-1.857 0-.775-.511-1.298-1.136-1.671zm-.673-1.087c1.209.56 2.486 1.225 2.486 2.758 0 1.577-1.204 2.364-2.486 2.948v-5.706z"/><path d="M19.432 18.08c2.774.64 5.625 2.716 5.625 5.818 0 2.657-4.49 2.56-4.49 0 0-.79-.498-1.44-1.135-1.857v4.964c2.567.84 5.633 2.344 5.633 5.466 0 3.107-2.85 5.179-5.633 5.815-.012 2.957-4.5 2.953-4.509-.004-1.582-.365-2.956-1.103-3.95-2.08-1.042-1.03-1.658-2.324-1.658-3.73 0-2.617 4.485-2.617 4.485 0 0 .782.494 1.427 1.123 1.844v-4.96c-2.547-.823-5.629-2.372-5.629-5.466 0-3.106 2.851-5.178 5.629-5.815.012-2.956 4.501-2.952 4.51.004zm-3.832.007v.54c-2.64.523-5.632 2.214-5.632 5.263 0 2.932 3.284 4.246 5.632 4.972v6.553c-1.27-.58-2.473-1.362-2.473-2.944 0-1.727-3.14-1.727-3.14 0 0 1.22.544 2.348 1.46 3.248 1.165 1.152 2.576 1.7 4.153 2.012v.543c0 2.08 3.16 2.08 3.16 0v-.54c2.647-.526 5.628-2.217 5.628-5.263 0-2.96-3.277-4.233-5.629-4.976v-6.549c1.273.58 2.486 1.363 2.486 2.952 0 1.683 3.135 1.752 3.135 0 0-3.045-2.977-4.74-5.62-5.267v-.544c0-2.08-3.16-2.08-3.16 0z"/></g><defs><clipPath id="clip0"><path fill="#fff" transform="translate(0 .5)" d="M0 0h35v40H0z"/></clipPath></defs></svg>
